src/img/soil-temperature.svg

<svg width="13" height="10" viewBox="0 0 13 10" fill="none" xmlns="http://www.w3.org/2000/svg">
<path d="M12 1.5H3.5H1" stroke="white" stroke-linecap="round"/>
<circle cx="2.5" cy="4.5" r="0.5" fill="white"/>
<circle cx="6.5" cy="3.5" r="0.5" fill="white"/>
<circle cx="5.5" cy="6.5" r="0.5" fill="white"/>
<circle cx="2.5" cy="8.5" r="0.5" fill="white"/>
<path d="M10.2222 7.42242V5.19135C10.2222 5.07151 10.1215 4.97222 10 4.97222C9.87847 4.97222 9.77778 5.07151 9.77778 5.19135V7.42242C9.51917 7.51316 9.33333 7.75455 9.33333 8.04052C9.33333 8.40346 9.63194 8.69793 10 8.69793C10.3681 8.69793 10.6667 8.40346 10.6667 8.04052C10.6667 7.75386 10.4806 7.51282 10.2222 7.42242ZM11.5556 6.81432V4.53395C11.5556 3.68658 10.8594 3 10.0125 3C9.16556 3 8.44444 3.68658 8.44444 4.53395V6.81432C8.17014 7.1533 8 7.57445 8 8.04011C8 9.12894 8.89583 10 10 10C11.1042 10 12 9.12894 12 8.04011C12 7.57445 11.8306 7.15124 11.5556 6.81432ZM10 9.13579C9.38708 9.13579 8.88889 8.64451 8.88889 8.05244C8.88889 7.70319 9.05903 7.38298 9.33333 7.17932V4.54559C9.33333 4.18265 9.63194 3.88818 10 3.88818C10.3681 3.88818 10.6667 4.18265 10.6667 4.54559V7.17932C10.941 7.38133 11.1111 7.70319 11.1111 8.05244C11.1111 8.6441 10.6125 9.13579 10 9.13579Z" fill="white"/>
</svg>

<svg xmlns="http://www.w3.org/2000/svg" width="13" height="10" fill="none"><path stroke="#fff" stroke-linecap="round" d="M12 1.5H1"/><circle cx="2.5" cy="4.5" r=".5" fill="#fff"/><circle cx="6.5" cy="3.5" r=".5" fill="#fff"/><circle cx="5.5" cy="6.5" r=".5" fill="#fff"/><circle cx="2.5" cy="8.5" r=".5" fill="#fff"/><path fill="#fff" d="M10.222 7.422v-2.23a.222.222 0 0 0-.444 0v2.23a.66.66 0 0 0-.445.619c0 .362.299.657.667.657a.66.66 0 0 0 .667-.657.66.66 0 0 0-.445-.619m1.334-.608v-2.28c0-.847-.697-1.534-1.543-1.534-.847 0-1.569.687-1.569 1.534v2.28C8.17 7.154 8 7.574 8 8.04 8 9.13 8.896 10 10 10s2-.871 2-1.96c0-.466-.17-.889-.444-1.226M10 9.136c-.613 0-1.111-.491-1.111-1.084 0-.349.17-.669.444-.873V4.546c0-.363.299-.658.667-.658s.667.295.667.658v2.633c.274.202.444.524.444.873 0 .592-.498 1.084-1.111 1.084"/></svg>
